X:1
T:Title
%%score { 1 | ( 2 3 ) }
L:1/8
Q:1/4=90
M:2/4
K:F
V:1 treble nm="Grand Piano"
V:2 bass 
V:3 bass 
V:1
 [CA]C FA | [DB]D B2 | [CA]C FA | [EG]4 | [CA]C FA | [DB]D B2 | [CA]C EG | [F,A,F]4 | cF Ac | %9
w: J.~H.~Fillmore * * *|||||||||
 [Fd][DB] [Fd]2 | cF AF | [EG]4 | cF Ac | [Fd][DB] [Fd]2 | [Fc][A,F] [CFA][EG] | [A,F]4 |] %16
w: |||||||
V:2
 z A, A,C | z B, D2 | z A, A,F | C,4 | z A, A,C | z B, D2 | z A, B,B, | F,,4 | %8
 [F,A,F][F,A,] [F,CF][F,A,F] | [B,,B,][B,,F,] [B,,B,]2 | [F,A,F][F,A,] [F,CF][F,A,] | [C,C]4 | %12
 .[F,A,F]2[K:treble] F[F,CF] | [B,,B,][B,,F,] [B,,B,]2 | [C,A,]C, C,B, | F,4 |] %16
V:3
 [F,,F,]4 | E,4 | [F,,F,]4 | x4 | [F,,F,]4 | [B,,F,]4 | C,4 | x4 | x4 | x4 | x4 | x4 | %12
 z .[F,A,]3[K:treble] | x4 | x4 | x4 |] %16

